X:1
T: The Annandale Strathspey
C:Anna Robertson
R:Strathspey
Q:128
K:D
M:4/4
L:1/16
A4|:D4 D3E FD3 F3G|A6B2 A4 d3e|f6d2 g3f ed3|B4e4e4F3E|
D4 D3E FD3|F3G|A6B2 A4 d3e|f6d2 g3f ed3|1B4d4d4F3E:|2B4d4d4A4|
a4 a3g f3g a3f|g3a g3f e4A4|f6e2 d3e fd3|e8 A6A2|B6c2 d3c d3B|A3B A3F D4F4|
E4 A3B c3A|B^G3|A12 A4|a4 a3g f3g a3f|g3a g3f e4A4|f6e2 d3e fd3|e8 A3G F3E|
D4 D3E FD3 F3G|A6B2 A4 d3e|f6d2 g3f ed3|B4d4d4||
